X:76
T: Graf und Nonne (Die Nonne)
N: Q0155M
O: Mitteleuropa, Deutschland (BRD) , Franken, Oberfranken,
N: Anhaengsel an der dritten Zeile.
R: Ballade, Standesunterschied, vergebliche Werbung, Liebe, Klage
M: 3/4
L: 1/8
K: G
D2 | G4D2 | B,2D2G2 | G2F2z2 | z4
D2 | D2F2A2 | e2d2c2 | B4
GB | d4d2 | d2c2B2 | c2A2D2 | E2D2
D2 | D2F2A2 | e2d2c2 | B4

